X:9
T:Cripple Creek
C: Traditional
M:4/4
R: Reel
L:1/8
N: Bonanzaville Jam
K:A
[|a2 a2 ecec|defd e2 fg|agaf ecec|=c^cec A2 fg|
a2 a2 ecec|defd e2e2|(3B=c^c ec BAFF|E2 (3F=G^G A2 A2|
|:=c^cec decd|=c^cec E2 AB|=c^cec BAFF|[1 E2 (3F=G^G A2 A2:|2E2 (3F=G^G A4|]
